X: 1
T: \'Ciro Kolo
O: Croatia
Z: 2003 John Chambers <jc:trillian.mit.edu>
M: 2/4
L: 1/8
P: C
K: C
|: "C"[cG][ec] [ge][ge] | [ge][af] [ge][ec] | [ge][ge] "G7"[fd][fd] | "C"[ec][ec] [dB][cG] :| \
|: "C"[e2c] "G7"[fd][dB] | "C"[e2c] "G7"[fd][dB] | "C"[ec][ec] "G7"[dB][dB] |1 "C"[c3G][dB] :|2 "C"[c3G]z |]
